packages/bip122-279b1a87aedc7b9471d4ad4e5f12967a/frontmatter/slip44/1129/icon.svg

<?xml version="1.0" encoding="UTF-8"?>
<svg viewBox="0 0 84 84" xmlns="http://www.w3.org/2000/svg">
    <circle cx="42" cy="42" r="42" fill="#FF00AF"/>
    <path d="m47.819 61.578v-39.136c8.4248 2.5171 14.583 10.337 14.583 19.568 0 9.2312-6.1586 17.052-14.583 19.568zm-5.8333-45.818v22.124l-3.3323-3.3323-0.4258-8.3168 3.4752-10.461c-2.2283 0.0234-4.3808 0.3413-6.4415 0.8882l-1.6814 5.056-4.7659-2.3902c-1.8856 1.0981-3.6297 2.4121-5.18 3.9302l8.8273 4.4231 0.2582 5.0619-5.0605-0.2596-4.4245-8.8258c-1.5167 1.5502-2.8321 3.2929-3.9302 5.18l2.3916 4.7673-5.0589 1.68c-0.5455 2.0606-0.8634 4.2131-0.8867 6.4414l10.462-3.4752 8.3169 0.4244 3.3322 3.3338-3.3322 3.3337-8.3169 0.4244-10.462-3.4752c0.0233 2.2283 0.3412 4.3808 0.8867 6.4414l5.0589 1.68-2.3916 4.7673c1.0981 1.8871 2.4135 3.6298 3.9302 5.18l4.4245-8.8258 5.0605-0.2596-0.2582 5.0604-8.8273 4.4246c1.5503 1.5167 3.2944 2.8306 5.18 3.9302l4.7659-2.3902 1.6814 5.056c2.0607 0.5455 4.2132 0.8648 6.4415 0.8882l-3.4752-10.461 0.4258-8.3168 3.3323-3.3323v22.124c14.497 0 26.25-11.753 26.25-26.25 0-14.497-11.753-26.25-26.25-26.25z" fill="#fff"/>
</svg>

<svg width="84" height="84" viewBox="0 0 84 84" fill="none" xmlns="http://www.w3.org/2000/svg">
    <circle cx="42" cy="42" r="42" fill="#FF00AF"/>
    <path d="M47.8187 61.5782V22.4423C56.2435 24.9594 62.4021 32.779 62.4021 42.0103C62.4021 51.2415 56.2435 59.0625 47.8187 61.5782ZM41.9854 15.7603V37.8846L38.6531 34.5523L38.2273 26.2355L41.7025 15.7748C39.4742 15.7982 37.3217 16.1161 35.261 16.663L33.5796 21.719L28.8137 19.3288C26.9281 20.4269 25.184 21.7409 23.6337 23.259L32.461 27.6821L32.7192 32.744L27.6587 32.4844L23.2342 23.6586C21.7175 25.2088 20.4021 26.9515 19.304 28.8386L21.6956 33.6059L16.6367 35.2859C16.0912 37.3465 15.7733 39.499 15.75 41.7273L26.2121 38.2521L34.529 38.6765L37.8612 42.0103L34.529 45.344L26.2121 45.7684L15.75 42.2932C15.7733 44.5215 16.0912 46.674 16.6367 48.7346L21.6956 50.4146L19.304 55.1819C20.4021 57.069 21.7175 58.8117 23.2342 60.3619L27.6587 51.5361L32.7192 51.2765L32.461 56.3369L23.6337 60.7615C25.184 62.2782 26.9281 63.5921 28.8137 64.6917L33.5796 62.3015L35.261 67.3575C37.3217 67.903 39.4742 68.2223 41.7025 68.2457L38.2273 57.785L38.6531 49.4682L41.9854 46.1359V68.2603C56.4827 68.2603 68.2354 56.5075 68.2354 42.0103C68.2354 27.513 56.4827 15.7603 41.9854 15.7603Z"
          fill="white"/>
</svg>
